X: 38778
T: Stuck In The Bog
R: jig
M: 6/8
K: Amajor
|:Aee cee|Aee d2c|Aee dcd|ece gab|
Aee cee|dcd ega|bag gae|ecB BcB:|
|:Ace aga|Ace dcd|Ace ~a3|bge ecB|
Ace aga|cea abc'|c'ba aec|1 ecB Aec:|2 ecB A3||

